X: 61
M:6/8
L:1/8
K:G
c | B2d B2d | efg f2d | g2e dBG |
g2e dBG | G2G G2 :| e | g2g f2d |
efg d2f | g2e dBG | A2A A2c |
g2g f2d | efg d2f | g2e dBG |
g2e dBG | A2A A2c | B2d c2e |
d2f e2f | g2e dBG | G2G G2 |]


